/* XPM */
static char *Pixmap[] = {
"32 32 16 2",
"00 c black",
"01 c Gray100",
"02 c #9C8CAD",
"03 c #A594B5",
"04 c #B5A5C6",
"05 c #C6BDD6",
"06 c #D6CEDE",
"07 c #BDADCE",
"08 c #947BA5",
"09 c #DED6E7",
"10 c #E7E7EF",
"11 c #F7EFF7",
"12 c black",
"13 c black",
"14 c black",
"15 c black",
"0000020304050606050704040404040404040404040407050606050403020000",
"0100000808070707070203030303030303030303030302070707070808000001",
"0101000002030404030300000000000000000502020203030404030200000101",
"0201010000030303030300000000000000000505030303030303030000010102",
"0308010100000404040405050101010101010101040404040404000001010803",
"0408020101000007070707050707070707070707070707070700000101020804",
"0507030301010000050505050505050505050505050505050000010103030705",
"0607040304010100000606060606060606060606060606000001010403040706",
"0607040304070101000009050601010101010106050900000101070403040706",
"0507030304070501010005050101010101010101050500010105070403030705",
"0703030304070506010101010000000000000000010101010605070403030307",
"0403020304070506090101010000000000000000000101010605070403020304",
"0403000005070506091011010101010101010000000001010605070400000504",
"0403000005070506091011050101010101010100000001010605070400000504",
"0403000001070506091001010000000000000000000001010605070400000104",
"0403000001070506090501000000000000000000000001010605070400000104",
"0403000001070506090100000000010101010100000001010605070400000104",
"0403000001070506010100000001010101010100000001010605070400000104",
"0403000001070506010100000001010101010100000001010605070400000104",
"0403000001070506090100000000010101010100000001010605070400000104",
"0403050501070506090501000000000000000000000001010605070405050104",
"0403020501070506090001010000000000000000000001010605070403050104",
"0703030304070506000001050101010101010101010100000605070403030307",
"0507030304070500000101090101010101010101010101000005070403030705",
"0607040304070000010106060606060606060606060601010000070403040706",
"0607040304000001010505050505050505050505050505010100000403040706",
"0507030300000101070707070707070707070707070707070101000003030705",
"0408020000010104040404040404040404040404040404040401010000020804",
"0308000001010303030303030000000000000000050303030303010100000803",
"0200000101030404030302020000000000000000050503030404030101000002",
"0000010108070707070208080505010101010101010102070707070801010000",
"0001020304050606050704040404040404040404040407050606050403020100"
};
